!!!!SEGMENT: pl-kk--kk-i-382--019-002_anonim--nro-6-sanctus.krn
!!!id: 18xx:1488
!!!COM: Anonim
!!!COM-rism: pe30004985
!!!CDT:
!!!CNT:
!!!OTL: Nro 6 Sanctus
!!!PDT:
!!!SMS-siglum: PL-Kk
!!!SMS-shelfmark: Kk.I.382
!!!NIFC-rismID: 1001139135
!!!URL-scan: http://repozytorium.nifc.pl/skany/pl-kk-nut--i-382
!!!ONB-nifc: UWAGA: obsada: S (T 1), A (B 1), T 2, B 2; S (T 1): skan 0018; A (B 1): skan 0164; T 2: skan 0090; B 2: skan 0236
!!!SMS-variant:
!!!SMS-altvar:
**kern	**text	**kern	**text	**kern	**text	**kern	**text
*part4	*part4	*part3	*part3	*part2	*part2	*part1	*part1
*staff4	*staff4	*staff3	*staff3	*staff2	*staff2	*staff1	*staff1
*I"Basso II	*	*I"Tenore II	*	*I"Alto vel Basso I	*	*I"Soprano vel Tenore I.	*
*I'B 2	*	*I'T 2	*	*I'A (B 1)	*	*I'S (T 1)	*
*clefF4	*	*clefC4	*	*clefC3	*	*clefC1	*
*k[b-]	*	*k[b-]	*	*k[b-]	*	*k[b-]	*
*M3/4	*	*M3/4	*	*M3/2	*	*M3/4	*
=1	=1	=1	=1	=1	=1	=1	=1
*2\right	*	*2\right	*	*2\right	*	*2\right	*
*rscale:1/2	*	*rscale:1/2	*	*	*	*rscale:1/2	*
!LO:TX:a:t=P:problem:w źródle metrum 3/4, ale w A (B 1) - metrum 3/2; inne utwory z tego zbioru wskazują, że właściwe metrum to metrum 3/2; użyto rscale	!	!LO:TX:a:t=P:problem:w źródle metrum 3/4, ale w A (B 1) - metrum 3/2; inne utwory z tego zbioru wskazują, że właściwe metrum to metrum 3/2; użyto rscale	!	!	!	!LO:TX:a:t=P:problem:w źródle metrum 3/4, ale w A (B 1) - metrum 3/2; inne utwory z tego zbioru wskazują, że właściwe metrum to metrum 3/2; użyto rscale	!
!	!	!	!	!LO:TX:a:i:t=Sanctus	!	!	!
!LO:TX:t=P:problem:all\right:global	!	!LO:TX:t=P:problem:all\right:global	!	!LO:TX:t=P:problem:all\right:global	!	!	!
!LO:TX:a:i:t=in F.\nSanctus	!	!LO:TX:a:i:t=Sanctus	!	!	!	!LO:TX:t=P:problem:all\right:global	!
!LO:TX:a:t=P:problem:w źródle ta adnotacja zapisana przed pierwszym taktem, na pięciolinii i częściowo nad pięciolinią	!	!LO:TX:a:t=P:problem:w źródle ta adnotacja zapisana przed pierwszym taktem, na pięciolinii	!	!LO:TX:a:t=P:problem:w źródle ta adnotacja zapisana przed pierwszym taktem, na pięciolinii	!	!LO:TX:a:t=P:problem:w źródle ta adnotacja zapisana przed pierwszym taktem, na pięciolinii i częściowo przed pięciolinią	!
!	!	!	!	!	!	!LO:TX:a:i:t=Sanctus	!
1F\	San-	2A\	San-	(>2f\	San-	(>2cc\	San-
.	.	2c\	.	2a\)	.	2ff\)	.
2F\	-ctus	2d\	-ctus	2b-\	-ctus	2dd\	-ctus
=2	=2	=2	=2	=2	=2	=2	=2
4F\L	San-	1f\	san-	(>1a\	San-	(>1cc\	San-
4B-\J	.	.	.	.	.	.	.
2c\	.	.	.	.	.	.	.
2C/	.	2e\	.	2g\)	.	2b-\)	.
=3	=3	=3	=3	=3	=3	=3	=3
1.F\	-ctus	1.c\	-ctus	1.f\	-ctus	1.a\	-ctus
=4	=4	=4	=4	=4	=4	=4	=4
2F\	San-	[>1.c\	San-	2f\	San-	2a\	San-
2E\	.	.	.	4e\	.	(>4g\L	.
.	.	.	.	4f\	.	4a\J	.
2C/	.	.	.	2g\	.	2b-\	.
=5	=5	=5	=5	=5	=5	=5	=5
2E\	.	2c\]	.	2g\	.	2b-\)	.
2F\	.	2c\	-ctus	2f\	-ctus	2a\	-ctus
2F\	-ctus	2A\	Do-	[>2a\	Do-	[>2cc\	Do-
!	!	!	!	!LO:LB:g=original	!	!	!
=6	=6	=6	=6	=6	=6	=6	=6
2.F\	Do-	2.A\	.	2.a\]	.	2.cc\]	.
4G\	-mi-	4B-\	-mi-	4g\	-mi-	4b-\	-mi-
2A\	-nus	2c\	-nus	2f\	-nus	2a\	-nus
!LO:LB:g=original	!	!	!	!	!	!LO:LB:g=original	!
=7	=7	=7	=7	=7	=7	=7	=7
1F\	De-	4d\L	De-	(>4b-\	De-	(>4dd\L	De-
.	.	4c\	.	4a\	.	4cc\	.
.	.	4B-\	.	4g\	.	4b-\	.
.	.	4A\J	.	4f\)	.	4a\J)	.
(>4C/L	-us	4G/L	-us	(>4e\	-us	(>4g\L	-us
4F/J)	.	4A/J	.	4f\)	.	4a\J)	.
!	!	!LO:LB:g=original	!	!	!	!	!
=8	=8	=8	=8	=8	=8	=8	=8
(>2E\	sa-	1c\	Sa-	1g\	Sa-	1b-\	Sa-
2C/)	.	.	.	.	.	.	.
2F\	-ba-	2c\	-ba-	2f\	-ba-	2a\	-ba-
=9	=9	=9	=9	=9	=9	=9	=9
!LO:SIC:l:v:s=-oth	!	!LO:SIC:l:v:s=-oth	!	!LO:SIC:l:v:s=-oth	!	!	!
1.C/	-ot	1.c\	-ot	1.e\	-ot	1.g\	-oth,
=10	=10	=10	=10	=10	=10	==10	==10
2C/	ple-	2G/	ple-	2e\	ple-	2cc\	Ple-
2C/	-ni	2G/	-ni	2e\	-ni	2cc\	-ni
2C/	sunt	2G/	sunt	2e\	sunt	2cc\	sunt
=11	=11	=11	=11	=11	=11	=11	=11
!LO:SIC:l:v:s=cae-	!	!LO:SIC:l:v:s=cae-	!	!LO:SIC:l:v:s=cae-	!	!LO:SIC:l:v:s=cae-	!
(<4C/L	ce-	2G/	ce-	(>4e\	ce-	(>4cc\L	ce-
4D/J)	.	.	.	4f\)	.	4bn\J)	.
1D\	-li	1G/	-li	1f\	-li	1b\	-li
!	!	!	!	!LO:LB:g=original	!	!	!
=12	=12	=12	=12	=12	=12	=12	=12
!LO:SIC:l:v:s=cae-	!	!LO:SIC:l:v:s=cae-	!	!LO:SIC:l:v:s=cae-	!	!LO:SIC:l:v:s=cae-	!
2E\	ce-	2c\	ce-	2g\	ce-	2b-X\	ce-
2E\	-li	2c\	-li	2g\	-li	2b-\	-li
2E\	et	2c\	et	2g\	et	2b-\	et
!	!	!	!	!	!	!LO:LB:g=original	!
=13	=13	=13	=13	=13	=13	=13	=13
(>4E\L	ter-	2c\	ter-	(>4g\	ter-	(>4b-\L	ter-
4F\J)	.	.	.	4f\)	.	4a\J)	.
1F\	-ra	1c\	-ra	1f\	-ra	1a\	-ra
!LO:LB:g=original	!	!	!	!	!	!	!
=14	=14	=14	=14	=14	=14	=14	=14
2.B-\	glo-	2.c\	glo-	2.e\	glo-	2.g\	glo-
4B-\	-ri-	4c\	-ri-	4e\	-ri-	4g\	-ri-
2A\	-a	2c\	-a	2f\	-a	2a\	-a
=15	=15	=15	=15	=15	=15	=15	=15
2.E\	glo-	2.c\	glo-	2.g\	glo-	2.b-\	glo-
4E\	-ri-	4c\	-ri-	4g\	-ri-	4b-\	-ri-
2F\	-a	2c\	-a	2f\	-a	2a\	-a
!	!	!LO:LB:g=original	!	!	!	!	!
=16	=16	=16	=16	=16	=16	=16	=16
2BB-/	tu-	1.c\	tu-	(>2g\	tu-	(>2b-\	tu-
1C/	.	.	.	2f\	.	2a\	.
.	.	.	.	2e\)	.	2g\)	.
=17	=17	=17	=17	=17	=17	=17	=17
1.F\	-a.	1.c\	-a.	1.f\	-a.	1.a\	-a.
!	!	!	!	!LO:LB:g=original	!	!LO:LB:g=original	!
==18	==18	==18	==18	==18	==18	==18	==18
*k[b-]	*	*k[b-]	*	*k[b-]	*	*k[b-]	*
*M4/4	*	*M4/4	*	*M4/4	*	*M4/4	*
*met(C.)	*	*met(C.)	*	*met(C.)	*	*met(C.)	*
*rscale:1	*	*rscale:1	*	*	*	*rscale:1	*
!LO:TX:a:t=P:problem:w źródle oznaczenie metryczne C.|	!	!	!	!	!	!	!
!	!	!	!	!	!	!LO:TX:a:t=P:problem:w źródle ta adnotacja zapisana przed taktem 18, na pięciolinii i częściowo przed pięciolinią	!
!	!	!	!	!	!	!LO:TX:a:i:t=Osanna	!
!LO:N:vis=8	!	!	!	!	!	!	!
!LO:TX:a:t=P:problem:pierwotnie w źródle 1F; poprawiono ołówkiem na 8F\	!	!	!	!	!	!	!
1F	O-	1A	O-	1f	O-	1cc	O-
=19	=19	=19	=19	=19	=19	=19	=19
2F\	-san-	4c\	-san-	(>4f\	-san-	(>4a\	-san-
.	.	4B-\	.	4g\)	.	4b-\)	.
4F\	-na	4A\	-na	4a\	-na	4cc\	-na
4E\	o-	4G/	o-	4b-\	O-	4dd\	o-
=20	=20	=20	=20	=20	=20	=20	=20
2F\	-san-	2A\	-san-	(>2a\	-san-	(>2cc\	-san-
2C/	.	2c\	.	2g\)	.	2b-\)	.
!LO:LB:g=original	!	!	!	!	!	!	!
=21	=21	=21	=21	=21	=21	=21	=21
2F\	-na	2c\	-na	2f\	-na	2a\	-na
4F\	in	4f\	in	4a\	in	4cc\	in
4F\	ex-	4c\	ex-	4f\	ex-	4a\	ex-
=22	=22	=22	=22	=22	=22	=22	=22
1C	-cel-	1c	-cel-	(>2e\	-cel-	(>2g\	-cel-
.	.	.	.	4e\	.	4g\	.
.	.	.	.	4f\	.	4a\	.
=23	=23	=23	=23	=23	=23	=23	=23
!	!	!	!	!	!	!LO:TX:a:t=P:problem:w źródle ta adnotacja dopisana ołówkiem	!
!	!	!	!	!	!	!LO:TX:a:i:t=Michał! otwieraj do- \n-brze Gębę!	!
2C/	.	2e\	-sis-	2g\	.	2b-\	.
2F\	.	2c\	.	2f\)	.	2a\)	.
=24	=24	=24	=24	=24	=24	=24	=24
2C/	-sis	2c\	-sis	2e\	-sis	2g\	-sis
2C/	o-	4B-\	o-	(>4g\	O-	(>4b-\	O-
.	.	4G\	.	4e\)	.	4g\)	.
!	!	!LO:LB:g=original	!	!LO:LB:g=original	!	!LO:LB:g=original	!
=25	=25	=25	=25	=25	=25	=25	=25
[>1F	-san-	4A\	-san-	4f\	-san-	(>4a\	-san-
.	.	4B-\	.	4g\	.	4b-\)	.
.	.	4c\	.	4a\	.	(>4cc\	-na
.	.	4d\	.	4b-\	.	4dd\)	.
=26	=26	=26	=26	=26	=26	=26	=26
2F\]	.	4c\	.	4a\	.	(>4cc\	in
.	.	4d\	.	4b-\	.	4dd\)	.
2F\	-na	4e\	-na	(>4g\	-na	(>4ee\	ex-
.	.	4f\	.	4a\)	.	4ff\)	.
=27	=27	=27	=27	=27	=27	=27	=27
!LO:TX:a:t=P:problem:w źródle "b" zapisane ołówkiem	!	!	!	!	!	!	!
!LO:TX:a:t=b	!	!	!	!	!	!	!
!LO:TX:a:t=P:problem:pierwotnie w źródle 2C/; poprawiono ołówkiem na 8BB-/	!	!	!	!	!	!	!
2BB-/	in	4d\	in	(>4b-\	in	(>4dd\	-cel-
.	.	4c\	.	4a\)	.	4cc\)	.
!LO:TX:a:t=P:problem:w źródle "b" zapisane ołówkiem	!	!	!	!	!	!	!
!LO:TX:a:t=b	!	!	!	!	!	!	!
!LO:TX:a:t=P:problem:pierwotnie w źródle 2C/; poprawiono ołówkiem na 8BB-/	!	!	!	!	!	!	!
2BB-/	ex-	4B-\	ex	(>4g\	ex-	(>4b-\	-sis
.	.	4A\	.	4f\)	.	4a\)	.
=28	=28	=28	=28	=28	=28	=28	=28
1C	-cel-	2c\	in	2e\	-cel-	2g\	in
.	.	2c\	ex-	4f\	.	(>4a\	ex-
.	.	.	.	4g\	.	4b-\)	.
=29	=29	=29	=29	=29	=29	=29	=29
2F\	.	1c	-cel-	2f\	.	(>2a\	-cel-
2C/	.	.	.	2e\	.	2g\)	.
=30	=30	=30	=30	=30	=30	=30	=30
1F	-sis	1c	-sis	1f	-sis	1a	-sis.
!LO:LB:g=original	!	!LO:LB:g=original	!	!LO:LB:g=original	!	!LO:LB:g=original	!
=31||	=31||	=31||	=31||	=31||	=31||	=31||	=31||
*k[b-]	*	*k[b-]	*	*k[b-]	*	*k[b-]	*
*M3/2	*	*M3/4	*	*M3/2	*	*M3/4	*
*rscale:2	*	*	*	*rscale:2	*	*	*
!LO:TX:t=P:problem:w źródle ta adnotacja zapisana częściowo na pięciolinii i częściowo pod pięciolinią, przed taktem 31	!	!	!	!	!	!	!
!LO:TX:b:i:t=Benedictus\nin D.mol.	!	!	!	!	!	!	!
!	!	!	!	!	!	!LO:TX:a:t=P:problem:w źródle ta adnotacja zapisana częściowo na pięciolinii i częściowo przed pięciolinią, przed taktem 31	!
!LO:TX:t=P:problem:metrum 3/2;użyto rscale	!	!	!	!LO:TX:t=P:problem:w źródle metrum 3/2; użyto rscale	!	!LO:TX:a:i:t=Benedictus	!
4D\	Be-	2A\	Be-	2f\	Be-	2dd\	Be-
4F\	.	.	.	.	.	.	.
4D\	-ne-	4A\	-ne-	4f\	-ne-	4dd\	-ne-
=32	=32	=32	=32	=32	=32	=32	=32
4AA/	-dic-	4A\	-di-	4f\	-dic-	4dd\	-di-
4C#X/	-tus	4A\	-ctus	(>8e\	-tus	(>8cc#X\L	-ctus
.	.	.	.	8f\)	.	8dd\J)	.
4AA/	qui	4A\	qui	4g\	qui	4ee\	qui
=33	=33	=33	=33	=33	=33	=33	=33
4C#X/	ve-	4A\	ve-	4g\	ve-	4ee\	ve-
4D\	-nit	4A\	-nit	4f\	-nit	4dd\	-nit
4r	.	4r	.	4r	.	4r	.
=34	=34	=34	=34	=34	=34	=34	=34
4D\	be-	2d\	Be-	2a\	be-	2ff\	Be-
4F\	.	.	.	.	.	.	.
4D\	-ne-	4d\	-ne-	4a\	-ne-	4ff\	-ne-
=35	=35	=35	=35	=35	=35	=35	=35
4AA/	-di-	4d\	-di-	4a\	-di-	4ff\	-di-
4A\	-ctus	8c#X\L	-ctus	4a\	-ctus	(>8ee\L	-ctus
.	.	8d\J	.	.	.	8ff\J)	.
4AA/	qui	4e\	qui	4a\	qui	4gg\	qui
!LO:LB:g=original	!	!	!	!LO:LB:g=original	!	!LO:LB:g=original	!
=36	=36	=36	=36	=36	=36	=36	=36
4C#X/	ve-	4e\	ve-	4a\	ve-	4gg\	ve-
4D\	-nit	4d\	-nit	4a\	-nit	4ff\	-nit
4D\	in	4f\	in	4a\	in	4ff\	in
!	!	!LO:LB:g=original	!	!	!	!	!
=37	=37	=37	=37	=37	=37	=37	=37
4D\	no-	(>8g\L	no-	(>8b-\	no-	(>8gg\L	no-
.	.	8f\J)	.	8a\)	.	8ff\J)	.
4C#X/	-mi-	8f\	-mi-	8a\	-mi-	8ff\	-mi-
.	.	8e\	-ne	8g\	-ne	8ee\	-ne
(<8C#/	-ne	8e\	Do-	8g\	Do-	8ee\	Do-
8D/)	.	8d\	-mi-	8f\	-mi-	8dd\	-mi-
=38	=38	=38	=38	=38	=38	=38	=38
8A\	Do-	2c#X\	-ni	2e\	-ni	2cc#X\	-ni
8AA/	-mi-	.	.	.	.	.	.
4AA/	-ni	.	.	.	.	.	.
4r	.	4r	.	4r	.	4r	.
=39	=39	=39	=39	=39	=39	=39	=39
!	!	!	!	!LO:TX:b:t=2.	!	!	!
2F\	Be-	(>4A\	Be-	1.r	.	(>4ccn\	Be-
.	.	8B-X\L	.	.	.	8dd\L	.
.	.	8cn\J)	.	.	.	8ee\J)	.
4F\	-ne-	(>8d\L	-ne-	.	.	(>8ff\L	-ne-
.	.	8B-\J)	.	.	.	8dd\J)	.
!	!	!	!	!	!	!LO:LB:g=original	!
=40	=40	=40	=40	=40	=40	=40	=40
4F\	-dic-	(<2A/	-dic-	.	.	(>2cc\	-di-
4A\	.	.	.	.	.	.	.
4c\	.	4G/)	.	.	.	4b-\)	.
=41	=41	=41	=41	=41	=41	=41	=41
2F\	-tus	2c\	-tus	4r	.	2a\	-ctus
.	.	.	.	4r	.	.	.
4F\	qui	4c\	qui	4f\	qui	4a\	qui
!LO:LB:g=original	!	!	!	!	!	!	!
=42	=42	=42	=42	=42	=42	=42	=42
4C/	ve-	4c\	ve-	4f\	ve-	4a\	ve-
4C/	-nit	4c\	-nit	4e\	-nit	4g\	-nit
4C/	qui	4c\	qui	4g\	qui	4b-X\	qui
!	!	!LO:LB:g=original	!	!LO:LB:g=original	!	!	!
=43	=43	=43	=43	=43	=43	=43	=43
4F\	ve-	4c\	ve-	4g\	ve-	4b-\	ve-
4F\	-nit	4c\	-nit	4f\	-nit	4a\	-nit
4D\	qui	4A\	qui	4f\	qui	4dd\	qui
=44	=44	=44	=44	=44	=44	=44	=44
4A\	ve-	4A\	ve-	4f\	ve-	4dd\	ve-
4A\	-nit	4A\	-nit	4e\	-nit	4cc#X\	-nit
4C#X/	qui	4A\	qui	4g\	qui	4ee\	qui
!	!	!	!	!	!	!LO:LB:g=original	!
=45	=45	=45	=45	=45	=45	=45	=45
4D\	ve-	4A\	ve-	4g\	ve-	4ee\	ve-
4D\	-nit	4A\	-nit	4f\	-nit	4dd\	-nit
4D\	in	4A\	in	4f\	in	4dd\	in
=46	=46	=46	=46	=46	=46	=46	=46
4.D\	no-	4.A\	no-	4.f\	no-	4.dd\	no-
8E\	-mi-	8G/	-mi-	8e\	-mi-	8cc#X\	-mi-
4F\	-ne	4F/	-ne	4d\	-ne	4a\	-ne
=47	=47	=47	=47	=47	=47	=47	=47
4G\	Do-	4B-X\	Do-	(>4e\	Do-	(>4cc#X\	Do-
4A\	.	4A\	.	4f\)	.	4dd\)	.
4AA/	-mi-	4A\	-mi-	4e\	-mi-	4cc#\	-mi-
!LO:LB:g=original	!	!	!	!LO:LB:g=original	!	!	!
=48	=48	=48	=48	=48	=48	=48	=48
2D\	-ni	2A\	-ni	2f\	-ni	2dd\	-ni
4D\	in	4A\	in	4f\	in	4dd\	in
=49	=49	=49	=49	=49	=49	=49	=49
4.D\	no-	4.A\	no-	4.f\	no-	4.dd\	no-
8E\	-mi-	8G/	-mi-	8e\	-mi-	8cc#X\	-mi-
4F\	-ne	4F/	-ne	4d\	-ne	4a\	-ne
!	!	!LO:LB:g=original	!	!	!	!LO:LB:g=original	!
=50	=50	=50	=50	=50	=50	=50	=50
4G\	Do-	4B-\	Do-	(>4e\	Do-	(>4cc#X\	Do-
4A\	.	4A\	.	4f\)	.	4dd\)	.
4AA/	-mi	4A\	-mi-	4e\	-mi-	4cc#\	-mi-
=51	=51	=51	=51	=51	=51	=51	=51
!	!	!	!	!	!	!LO:TX:b:i:t=Osanna Da Capo.	!
!	!	!	!	!LO:TX:b:i:t=Osanna Da Capo.	!	!LO:TX:b:i:t=Seque Agnus. V&colon;S&colon;	!
2.D\	ni.	2.A\	-ni.	2.f\	-ni	2.dd\	-ni.
!	!	!	!	!LO:LB:g=original	!	!LO:LB:g=original	!
=52||	=52||	=52||	=52||	=52||	=52||	=52||	=52||
*M4/4	*	*M4/4	*	*M4/4	*	*M4/4	*
*met(C.)	*	*met(C.)	*	*met(C.)	*	*met(C.)	*
*rscale:1	*	*	*	*rscale:1	*	*	*
!	!	!	!	!LO:TX:t=P:problem:brak t. 52-64 w źródle	!	!LO:TX:t=P:problem:brak t. 52-64 w źródle	!
1F	O-	1A	O-	1f	O-	1cc	O-
=53	=53	=53	=53	=53	=53	=53	=53
2F\	-san-	(>4c\	-san-	(>4f\	-san-	(>4a\	-san-
.	.	4B-\)	.	4g\)	.	4b-\)	.
4F\	-na	4A\	-na	4a\	-na	4cc\	-na
4E\	o-	4G/	o-	4b-\	O-	4dd\	o-
=54	=54	=54	=54	=54	=54	=54	=54
2F\	-san-	2A\	-san-	(>2a\	-san-	(>2cc\	-san-
2C/	.	2c\	.	2g\)	.	2b-\)	.
=55	=55	=55	=55	=55	=55	=55	=55
2F\	-na	2c\	-na	2f\	-na	2a\	-na
4F\	in	4f\	in	4a\	in	4cc\	in
4F\	ex-	4c\	ex-	4f\	ex-	4a\	ex-
!LO:LB:g=original	!	!	!	!	!	!	!
=56	=56	=56	=56	=56	=56	=56	=56
1C	-cel-	(>1c	-cel-	(>2e\	-cel-	(>2g\	-cel-
.	.	.	.	4e\	.	4g\	.
.	.	.	.	4f\	.	4a\	.
=57	=57	=57	=57	=57	=57	=57	=57
2C/	-sis	2e\	.	2g\	.	2b-\	.
2F\	.	2c\)	.	2f\)	.	2a\)	.
=58	=58	=58	=58	=58	=58	=58	=58
2C/	sis	2c\	-sis	2e\	-sis	2g\	-sis
2C/	o-	(>4B-\	o-	(>4g\	O-	(>4b-\	O-
.	.	4G/)	.	4e\)	.	4g\)	.
!	!	!	!	!LO:LB:g=original	!	!LO:LB:g=original	!
=59	=59	=59	=59	=59	=59	=59	=59
[>1F	-san-	(>4A\	-san-	4f\	-san-	(>4a\	-san-
.	.	4B-\	.	4g\	.	4b-\)	.
.	.	4c\	.	4a\	.	(>4cc\	-na
.	.	4d\)	.	4b-\	.	4dd\)	.
!	!	!LO:LB:g=original	!	!	!	!	!
=60	=60	=60	=60	=60	=60	=60	=60
2F\]	.	4c\	.	4a\	.	(>4cc\	in
.	.	4d\	.	4b-\	.	4dd\)	.
2F\	-na	4e\	.	(>4g\	-na	(>4ee\	ex-
.	.	4f\	.	4a\)	.	4ff\)	.
=61	=61	=61	=61	=61	=61	=61	=61
2BB-/	in	4d\	.	(>4b-\	in	(>4dd\	-cel-
.	.	4c\	.	4a\)	.	4cc\)	.
2BB-/	ex-	4B-\	-na	(>4g\	ex-	(>4b-\	-sis
.	.	4A\	.	4f\)	.	4a\)	.
=62	=62	=62	=62	=62	=62	=62	=62
1C	-cel-	2c\	in	2e\	-cel-	2g\	in
.	.	2c\	ex-	4f\	.	(>4a\	ex-
.	.	.	.	4g\	.	4b-\)	.
=63	=63	=63	=63	=63	=63	=63	=63
2F\	.	1c	-cel-	2f\	.	(>2a\	-cel-
2C/	.	.	.	2e\	.	2g\)	.
=64	=64	=64	=64	=64	=64	=64	=64
1F	-sis.	1c	-sis.	1f	-sis	1a	-sis.
==	==	==	==	==	==	==	==
*-	*-	*-	*-	*-	*-	*-	*-
!!!system-decoration: [(s1,s2,s3,s4)]
!!!RDF**kern: > = above
!!!RDF**kern: < = below
!!!EED: Antoni Szymański
!!!EST: 2021-02-03
!!!ENC: Marcin Jachim
!!!END: 2021-01-28
